X:233
%%etbk:tnset id:73,pos:1,rep:3x,ant:
%%etbk:wsite http://www.thesession.org/tunes/display/775
%%etbk:pldat 2016-09-07T16:32,2014-04-30T15:45,2014-04-08T17:42,2014-02-16T13:57,2013-11-24T14:18
T: Banks Of Lough Gowna, The
Z: Piano Box Version by Martin Fleischmann
H: Created 2013-02-19 /  Last Modified 2013-02-19
M: 6/8
L: 1/8
R: jig
K: Bmin
!2!BBB B!1!A!2!F|!2!F!1!EF !1!D!2!F!3!A|!2!B2B BAB|
!3!d2e !5!fe!3!d|!2!BBB B!1!A!2!F|FEF !1!D!2!F!3!A|
!5!d!2!ef !4!geg|1 !3!f!1!d!2!B !2!B2A:|2 fdB !2!B2B||
|:!1!d!2!e!3!f !4!a!3!a!4!a|!4!a!3!f!5!b afe|!1!d!2!d!1!d def|
!4!geg !3!f!1!d!2!B|!1!def !4!aaa|afb afe|
!1!def !4!geg|1 f!1!d!2!B B2B:|2 f!1!d!2!B B2A||


